svgs/steam_link.svg

<svg width="192" height="192" viewBox="0 0 192 192" fill="none" xmlns="http://www.w3.org/2000/svg">
<path d="M132.467 42H59.1546C48.8927 42 39.3688 48.074 35.6544 57.9854C32.5162 66.3594 28.4904 78.1663 25.6299 90.3929C22.8056 102.464 20.9506 115.614 22.6532 126.397C23.9293 134.479 30.1716 139.746 35.5191 142.926C41.0619 146.222 47.113 148.163 50.5309 149.102C55.5361 150.477 60.2452 147.285 61.406 142.7L68.1192 116.187C68.4562 114.855 69.6541 113.923 71.0274 113.923H121.472C122.851 113.923 124.052 114.862 124.384 116.2L130.938 142.612C132.097 147.281 136.924 150.494 141.974 149.009C145.341 148.019 151.201 146.018 156.556 142.707C161.731 139.508 167.724 134.278 168.968 126.397C170.671 115.614 168.816 102.465 165.991 90.3929C163.131 78.1664 159.105 66.3594 155.967 57.9854C152.252 48.074 142.728 42 132.467 42Z" stroke="black" stroke-width="12" stroke-linejoin="round"/>
<path d="M66.5 95C77.8218 95 87 85.8218 87 74.5C87 63.1782 77.8218 54 66.5 54C55.1782 54 46 63.1782 46 74.5C46 85.8218 55.1782 95 66.5 95Z" fill="black"/>
<path d="M125.5 95C136.822 95 146 85.8218 146 74.5C146 63.1782 136.822 54 125.5 54C114.178 54 105 63.1782 105 74.5C105 85.8218 114.178 95 125.5 95Z" fill="black"/>
</svg>

<svg width="192" height="192" viewBox="0 0 192 192" fill="none" xmlns="http://www.w3.org/2000/svg"><path d="M132.467 42H59.155c-10.262 0-19.786 6.074-23.5 15.985-3.139 8.374-7.165 20.181-10.025 32.408-2.824 12.071-4.68 25.221-2.977 36.004 1.276 8.082 7.519 13.349 12.866 16.529 5.543 3.296 11.594 5.237 15.012 6.176 5.005 1.375 9.714-1.817 10.875-6.402l6.713-26.513a3 3 0 0 1 2.908-2.264h50.445a3 3 0 0 1 2.912 2.277l6.554 26.412c1.159 4.669 5.986 7.882 11.036 6.397 3.367-.99 9.227-2.991 14.582-6.302 5.175-3.199 11.168-8.429 12.412-16.31 1.703-10.783-.152-23.932-2.977-36.004-2.86-12.227-6.886-24.034-10.024-32.408C152.252 48.074 142.728 42 132.467 42Z" stroke="#000" stroke-width="12" stroke-linejoin="round"/><path d="M66.5 95C77.822 95 87 85.822 87 74.5S77.822 54 66.5 54 46 63.178 46 74.5 55.178 95 66.5 95ZM125.5 95c11.322 0 20.5-9.178 20.5-20.5S136.822 54 125.5 54 105 63.178 105 74.5 114.178 95 125.5 95Z" fill="#000"/></svg>
